X:7844
T:I've been workin' on the railroad
C:anon.
O:USA
R:Bright swing
Z:Transcribed by Frank Nordberg - http://www.musicaviva.com
F:http://abc.musicaviva.com/tunes/usa/workin-on-the-railroad.abc
M:C
L:1/8
Q:1/4=140
K:G
"G"G3D GDGA|"G"B4 G3G|"C"c3c G2A2|"G"B4 z4|
"G"G3D GDGA|"G"B4 G3G|"A7"A2A2 A2B2|"D7"A4 z4|
"D7"A3A ^GABA|"G"=G4 D2G2|"C"c2cc GGAA|"G"B4 z4|
"C"E3F "A7/C#"GFGE|"G/D"D4 "Em7"G4|"Am9"B3c "G/D"B2"D7"A2|"G"G4 z4|]
W:
W:
W:  From Musica Viva - http://www.musicaviva.com
W:  the Internet center for free sheet music downloads.
